exported-svg/book-open.svg

<svg height="24" viewBox="0 0 24 24" width="24" xmlns="http://www.w3.org/2000/svg"><path d="m12.5 5.43639897c.7481135-1.44717846 2.2585343-2.43639897 4-2.43639897h6c.2761424 0 .5.22385763.5.5v15c0 .2761424-.2238576.5-.5.5h-7c-1.3807119 0-2.5 1.1192881-2.5 2.5 0 .6666667-1 .6666667-1 0 0-1.3807119-1.1192881-2.5-2.5-2.5h-7c-.27614237 0-.5-.2238576-.5-.5v-15c0-.27614237.22385763-.5.5-.5h6c1.7414657 0 3.2518865.98922051 4 2.43639897zm.5 2.06360103v11.5505086c.6352585-.648275 1.5206559-1.0505086 2.5-1.0505086h6.5v-14h-5.5c-1.9329966 0-3.5 1.56700338-3.5 3.5zm-1 11.5505086v-11.5505086c0-1.93299662-1.5670034-3.5-3.5-3.5h-5.5v14h6.5c.9793441 0 1.8647415.4022336 2.5 1.0505086zm.5.6456981c.1413399-.2345668.3094125-.4512055.5-.6456981v2.4494914h-1c0-.6598341.1825901-1.2770219.5-1.8037933.3174099.5267714.5 1.1439592.5 1.8037933 0 .6666667-1 .6666667-1 0v-2.4494914c.1905875.1944926.3586601.4111313.5.6456981z"/></svg>

<?xml version="1.0" encoding="UTF-8"?>
<svg width="24px" height="24px" viewBox="0 0 24 24" version="1.1" xmlns="http://www.w3.org/2000/svg" xmlns:xlink="http://www.w3.org/1999/xlink">
    <!-- Generator: Sketch 55.2 (78181) - https://sketchapp.com -->
    <title>book-open</title>
    <desc>Created with Sketch.</desc>
    <g id="book-open" stroke="none" stroke-width="1" fill="none" fill-rule="evenodd">
        <path d="M12.5,5.43639897 C13.2481135,3.98922051 14.7585343,3 16.5,3 L22.5,3 C22.7761424,3 23,3.22385763 23,3.5 L23,18.5 C23,18.7761424 22.7761424,19 22.5,19 L15.5,19 C14.1192881,19 13,20.1192881 13,21.5 C13,22.1666667 12,22.1666667 12,21.5 C12,20.1192881 10.8807119,19 9.5,19 L2.5,19 C2.22385763,19 2,18.7761424 2,18.5 L2,3.5 C2,3.22385763 2.22385763,3 2.5,3 L8.5,3 C10.2414657,3 11.7518865,3.98922051 12.5,5.43639897 Z M13,7.5 L13,19.0505086 C13.6352585,18.4022336 14.5206559,18 15.5,18 L22,18 L22,4 L16.5,4 C14.5670034,4 13,5.56700338 13,7.5 Z M12,19.0505086 L12,7.5 C12,5.56700338 10.4329966,4 8.5,4 L3,4 L3,18 L9.5,18 C10.4793441,18 11.3647415,18.4022336 12,19.0505086 Z M12.5,19.6962067 C12.6413399,19.4616399 12.8094125,19.2450012 13,19.0505086 L13,21.5 L12,21.5 C12,20.8401659 12.1825901,20.2229781 12.5,19.6962067 C12.8174099,20.2229781 13,20.8401659 13,21.5 C13,22.1666667 12,22.1666667 12,21.5 L12,19.0505086 C12.1905875,19.2450012 12.3586601,19.4616399 12.5,19.6962067 Z" id="Combined-Shape" fill="#000000" fill-rule="nonzero"></path>
    </g>
</svg>
